X: 20830
T: Johnny's Gone To France
R: polka
M: 2/4
K: Edorian
|:BE Ed|B2 AG|F/E/D AD|BD AD|
BE Ed|B2 AG|F/E/D AF|E2 E2:|
|:Bd ef|gf ed|B/c/d Ad|Bd Ad|
Bd ef|gf ed|B/c/d AF|E2 E2:|

